X:1
T:Doing His Will
T:Doing His Will
T:Edmund Simon Lorenz
T:Christopher Ruby Blackall, 1885
T:Public Domain Courtesy of the Cyber Hymnal™
C:Edmund Simon Lorenz
Z:Public Domain
Z:Courtesy of the Cyber Hymnal™
%%score 1 ( 2 3 )
L:1/8
Q:1/4=105
M:3/4
K:G
V:1 treble 
V:2 bass 
V:3 bass 
V:1
 DG | B2 B2 B2 | (B3 c) AF | A2 G2 G2 | G4 [DG][GB] | [Bd]2 [Bd]2 [Bd]2 | ([Bd]3 [ce]) [Ac][FA] | %7
w: 1.~If my|heart is the|Lord’s * All His|works I shall|do; In my|life I will|show * That to|
w: 2.~If I|keep in the|way * Where He|bids me a-|bide, I shall|be safe from|harm * With my|
w: 3.~He will|guide me in|peace, * Be my|stay and my|shield, And no|foes shall pre-|vail * While He|
w: 4.~Thro’ the|years of my|life * His ex-|ceed- ing re-|ward Shall be|mine, till the|end * Pur- est|
 [Ac]2 [GB]2 [DB]2 | [GB]4 z2 ||"^Refrain" [Gd]2 [DB]2 [EG]2 | [FA]4 [Fd]2 | [Gd]2 [DB]2 [EG]2 | %12
w: Him I am|true.||||
w: Lord close al-|lied.|Do- ing His|will I|ne- ver shall|
w: owns me His|child.||||
w: bliss shall af-|ford.||||
 ([FA]4 (3Bcd) | [Ge]2 [Ge]2 [Ge]2 | [Gd]3 [Fc] [GB]2 | [GB]4 [DA]2 | [DG]4 |] %17
w: |||||
w: stray * * *|Far from the|beau- ti- ful|path a-|way.|
w: |||||
w: |||||
V:2
 z2 | G,,6 | D,6 | [G,,G,]6 | G,,4 z2 | G,,6 | D,6 | G,6 | G,,4 z2 || [G,B,]2 G,2 [E,B,]2 | %10
 [D,D]4 [D,C]2 | [G,B,]2 G,2 [E,B,]2 | [D,C]4 z2 | [C,C]2 [C,C]2 [C,C]2 | [B,,D]3 [A,,D] [G,,D]2 | %15
 [D,D]4 [D,C]2 | [G,,B,]4 |] %17
V:3
 x2 | x6 | x6 | x6 | x6 | x6 | x6 | x6 | x6 || x2 G,2 x2 | x6 | x2 G,2 x2 | x6 | x6 | x6 | x6 | %16
 x4 |] %17

